docs/local/img/sprites/user.svg

<svg width="14" height="16" viewBox="0 0 14 16" fill="none" xmlns="http://www.w3.org/2000/svg">
<path d="M3.57143 4.25547C3.57143 6.05342 5.10645 7.51094 7 7.51094C8.89355 7.51094 10.4286 6.05342 10.4286 4.25547C10.4286 2.45752 8.89355 1 7 1C5.10645 1 3.57143 2.45752 3.57143 4.25547Z" stroke-width="1.2"/>
<path d="M1 12.341C1 11.6408 1.46359 11.0161 2.15808 10.7806C5.28918 9.71884 8.71082 9.71884 11.8419 10.7806C12.5364 11.0161 13 11.6408 13 12.341V13.4116C13 14.3781 12.0985 15.1204 11.091 14.9837L10.2729 14.8728C8.10198 14.5783 5.89801 14.5783 3.72711 14.8728L2.90903 14.9837C1.90146 15.1204 1 14.3781 1 13.4116V12.341Z" stroke-width="1.2"/>
</svg>

<svg width="14" height="16" viewBox="0 0 14 16" fill="none" xmlns="http://www.w3.org/2000/svg"><path d="M3.571 4.255c0 1.798 1.535 3.256 3.429 3.256s3.429-1.458 3.429-3.256C10.429 2.458 8.894 1 7 1S3.571 2.458 3.571 4.255zM1 12.341c0-.7.464-1.325 1.158-1.56a15.118 15.118 0 019.684 0c.694.235 1.158.86 1.158 1.56v1.07c0 .967-.902 1.71-1.909 1.573l-.818-.111a24.36 24.36 0 00-6.546 0l-.818.11C1.901 15.12 1 14.379 1 13.413V12.34z" stroke-width="1.2"/></svg>
